icons/numix/32x32/mimetypes/application-postscript.svg

<?xml version="1.0" encoding="UTF-8" standalone="no"?>
<svg
   xmlns:dc="http://purl.org/dc/elements/1.1/"
   xmlns:cc="http://creativecommons.org/ns#"
   xmlns:rdf="http://www.w3.org/1999/02/22-rdf-syntax-ns#"
   xmlns:svg="http://www.w3.org/2000/svg"
   xmlns="http://www.w3.org/2000/svg"
   xmlns:sodipodi="http://sodipodi.sourceforge.net/DTD/sodipodi-0.dtd"
   xmlns:inkscape="http://www.inkscape.org/namespaces/inkscape"
   width="32"
   height="32"
   viewBox="0 0 32 32"
   id="svg2"
   version="1.1"
   inkscape:version="0.48.5 r10040"
   sodipodi:docname="application-postscript.svg">
  <metadata
     id="metadata22">
    <rdf:RDF>
      <cc:Work
         rdf:about="">
        <dc:format>image/svg+xml</dc:format>
        <dc:type
           rdf:resource="http://purl.org/dc/dcmitype/StillImage" />
      </cc:Work>
    </rdf:RDF>
  </metadata>
  <defs
     id="defs20" />
  <sodipodi:namedview
     pagecolor="#ffffff"
     bordercolor="#666666"
     borderopacity="1"
     objecttolerance="10"
     gridtolerance="10"
     guidetolerance="10"
     inkscape:pageopacity="0"
     inkscape:pageshadow="2"
     inkscape:window-width="1280"
     inkscape:window-height="970"
     id="namedview18"
     showgrid="true"
     inkscape:zoom="10.429825"
     inkscape:cx="-1.0543983"
     inkscape:cy="12.075472"
     inkscape:window-x="0"
     inkscape:window-y="0"
     inkscape:window-maximized="1"
     inkscape:current-layer="svg2">
    <inkscape:grid
       type="xygrid"
       id="grid3010" />
  </sodipodi:namedview>
  <path
     style="fill:#eb1b23;fill-opacity:1"
     d="M 5.3358875,2.97e-4 C 4.6484135,3.12e-4 4,0.676788 4,1.394031 L 4,30.606268 C 4,31.282757 4.6874735,32 5.3358875,32 l 21.3273315,0 c 0.648414,0 1.335888,-0.717243 1.335888,-1.393732 L 27.999999,8.9999997 18.999999,0 z"
     id="path4-1"
     inkscape:connector-curvature="0"
     sodipodi:nodetypes="ssssssccs" />
  <path
     style="fill:#000000;fill-opacity:0.19599998"
     d="m 20.999999,8.9999997 7,7.0000003 0,-7.0000003 z"
     id="path6-4"
     inkscape:connector-curvature="0"
     sodipodi:nodetypes="cccc" />
  <path
     style="fill:#ffffff;fill-opacity:0.39200003"
     d="m 19.000305,2.97e-4 8.991594,8.9997027 -7.613262,0 c -0.672951,0 -1.378332,-0.7134896 -1.378332,-1.3864402 z"
     id="path8-6"
     inkscape:connector-curvature="0"
     sodipodi:nodetypes="ccssc" />
  <g
     style="fill:#ffffff"
     id="g10"
     transform="translate(0,1.000031)">
    <path
       d="m 11.566406,15.859375 c 0.515625,0.02344 1.082032,0.351563 1.503906,0.632813 1.234376,0.820312 2.222657,2.183593 2.027344,3.746093 0.183594,-0.296875 0.195313,-0.730469 0.195313,-1.074219 0,-1.097656 -0.589844,-2.226562 -1.335938,-2.992187 C 13.710938,15.914062 13.449219,15.621094 13.125,15.464844 l 3.675781,-4.351563 0.882813,-1.042969 C 17.75,9.988281 17.976562,9.804688 17.925781,9.683594 17.882812,9.574219 17.671875,9.503906 17.570312,9.457031 17.457031,9.40625 17.253906,9.296875 17.125,9.34375 17,9.390625 16.890625,9.574219 16.804688,9.675781 l -0.675782,0.789063 -3.179687,3.730468 -0.941407,1.101563 c -0.148437,0.175781 -0.34375,0.351563 -0.441406,0.5625 z"
       id="path12"
       inkscape:connector-curvature="0" />
    <path
       d="m 9.484375,17.132812 c 1.261719,-1.34375 2.378906,-2.84375 3.589844,-4.238281 l 1.527343,-1.808593 c 0.351563,-0.402344 0.769532,-0.8125 1.050782,-1.269532 -0.183594,-0.054687 -0.601563,-0.089844 -0.777344,0 -0.1875,0.09375 -0.34375,0.351563 -0.480469,0.507813 L 13.523438,11.3125 c -0.125,0.152344 -0.277344,0.386719 -0.453126,0.480469 -0.257812,0.128906 -0.722656,0.07813 -1.003906,0.08594 l -1.027344,0.08203 c -0.765624,0.05469 -1.640624,0.05469 -2.019531,0.878906 -0.304687,0.65625 -0.257812,1.597656 -0.289062,2.3125 -0.0625,1.5 -0.113281,3.023437 0.027343,4.519531 0.058594,0.644531 -0.011718,1.460937 0.316407,2.035156 0.320312,0.5625 0.9375,0.683594 1.519531,0.738281 1.128906,0.105469 2.480469,0.07422 3.390625,-0.71875 1.082031,-0.941406 0.929687,-2.621093 -0.05469,-3.546874 -1.074219,-1.015626 -3.046876,-1.527344 -4.445313,-1.046876 z"
       id="path14"
       inkscape:connector-curvature="0" />
    <path
       d="m 13.289062,22.582031 c 0.207032,0.08984 0.554688,0.05859 0.78125,0.05859 l 1.417969,0.02734 c 1.796875,0 3.570313,-0.113281 5.363281,-0.195313 0.851563,-0.03906 1.8125,-0.07031 2.164063,-1.019531 0.226563,-0.601563 0.183594,-1.371094 0.226563,-2.003906 0.101562,-1.46875 0.140624,-2.972657 0.0039,-4.4375 -0.06641,-0.683594 0.01563,-1.539063 -0.28125,-2.171875 -0.457032,-0.984375 -1.84375,-0.910156 -2.753906,-0.933594 -0.226563,-0.0078 -0.644532,-0.140625 -0.851563,-0.03906 -0.15625,0.07422 -0.25,0.480468 -0.324219,0.632812 l -0.804687,1.777344 c -0.953125,2.105468 -1.84375,4.261718 -2.875,6.328125 -0.402344,0.800781 -1.125,1.8125 -2.066407,1.976562 z"
       id="path16"
       inkscape:connector-curvature="0" />
  </g>
</svg>

<svg width="32" xmlns="http://www.w3.org/2000/svg" height="32" viewBox="0 0 32 32" xmlns:xlink="http://www.w3.org/1999/xlink">
<path style="fill:#eb1b23" d="M 5.332031 0.667969 C 4.648438 0.667969 4 1.3125 4 2 L 4 30 C 4 30.648438 4.6875 31.332031 5.332031 31.332031 L 26.667969 31.332031 C 27.3125 31.332031 28 30.648438 28 30 L 28 9.332031 L 19.332031 0.667969 Z "/>
<path style="fill:#000;fill-opacity:.196" d="M 19.332031 8 L 19.375 8.042969 L 19.480469 8 Z M 20.667969 9.332031 L 28 16.667969 L 28 9.332031 Z "/>
<path style="fill:#fff;fill-opacity:.392" d="M 19.332031 0.667969 L 28 9.332031 L 20.667969 9.332031 C 20.019531 9.332031 19.332031 8.648438 19.332031 8 Z "/>
<g style="fill:#fff">
<path d="M 11.566406 15.859375 C 12.082031 15.882812 12.648438 16.210938 13.070312 16.492188 C 14.304688 17.3125 15.292969 18.675781 15.097656 20.238281 C 15.28125 19.941406 15.292969 19.507812 15.292969 19.164062 C 15.292969 18.066406 14.703125 16.9375 13.957031 16.171875 C 13.710938 15.914062 13.449219 15.621094 13.125 15.464844 L 16.800781 11.113281 L 17.683594 10.070312 C 17.75 9.988281 17.976562 9.804688 17.925781 9.683594 C 17.882812 9.574219 17.671875 9.503906 17.570312 9.457031 C 17.457031 9.40625 17.253906 9.296875 17.125 9.34375 C 17 9.390625 16.890625 9.574219 16.804688 9.675781 L 16.128906 10.464844 L 12.949219 14.195312 L 12.007812 15.296875 C 11.859375 15.472656 11.664062 15.648438 11.566406 15.859375 Z "/>
<path d="M 9.484375 17.132812 C 10.746094 15.789062 11.863281 14.289062 13.074219 12.894531 L 14.601562 11.085938 C 14.953125 10.683594 15.371094 10.273438 15.652344 9.816406 C 15.46875 9.761719 15.050781 9.726562 14.875 9.816406 C 14.6875 9.910156 14.53125 10.167969 14.394531 10.324219 L 13.523438 11.3125 C 13.398438 11.464844 13.246094 11.699219 13.070312 11.792969 C 12.8125 11.921875 12.347656 11.871094 12.066406 11.878906 L 11.039062 11.960938 C 10.273438 12.015625 9.398438 12.015625 9.019531 12.839844 C 8.714844 13.496094 8.761719 14.4375 8.730469 15.152344 C 8.667969 16.652344 8.617188 18.175781 8.757812 19.671875 C 8.816406 20.316406 8.746094 21.132812 9.074219 21.707031 C 9.394531 22.269531 10.011719 22.390625 10.59375 22.445312 C 11.722656 22.550781 13.074219 22.519531 13.984375 21.726562 C 15.066406 20.785156 14.914062 19.105469 13.929688 18.179688 C 12.855469 17.164062 10.882812 16.652344 9.484375 17.132812 Z "/>
<path d="M 13.289062 22.582031 C 13.496094 22.671875 13.84375 22.640625 14.070312 22.640625 L 15.488281 22.667969 C 17.285156 22.667969 19.058594 22.554688 20.851562 22.472656 C 21.703125 22.433594 22.664062 22.402344 23.015625 21.453125 C 23.242188 20.851562 23.199219 20.082031 23.242188 19.449219 C 23.34375 17.980469 23.382812 16.476562 23.246094 15.011719 C 23.179688 14.328125 23.261719 13.472656 22.964844 12.839844 C 22.507812 11.855469 21.121094 11.929688 20.210938 11.90625 C 19.984375 11.898438 19.566406 11.765625 19.359375 11.867188 C 19.203125 11.941406 19.109375 12.347656 19.035156 12.5 L 18.230469 14.277344 C 17.277344 16.382812 16.386719 18.539062 15.355469 20.605469 C 14.953125 21.40625 14.230469 22.417969 13.289062 22.582031 Z "/>
</g>
</svg>
